static/img/kroki/db1394068697fef70d82f91e276cda1b.svg

<?xml version="1.0" encoding="us-ascii" standalone="no"?><svg xmlns="http://www.w3.org/2000/svg" xmlns:xlink="http://www.w3.org/1999/xlink" contentStyleType="text/css" height="252px" preserveAspectRatio="none" style="width:782px;height:252px;" version="1.1" viewBox="0 0 782 252" width="782px" zoomAndPan="magnify"><defs/><g><!--class gcp_backend_service--><g id="elem_gcp_backend_service"><rect codeLine="23" fill="#3D176E" height="39.7891" id="gcp_backend_service" rx="2.5" ry="2.5" style="stroke:#000D19;stroke-width:0.5;" width="215" x="279.5" y="206.58"/><ellipse cx="294.5" cy="226.4745" fill="#ADD1B2" rx="11" ry="11" style="stroke:#181818;stroke-width:1.0;"/><path d="M297.4688,232.1152 Q296.8906,232.412 296.25,232.5527 Q295.6094,232.7089 294.9063,232.7089 Q292.4063,232.7089 291.0781,231.0683 Q289.7656,229.412 289.7656,226.287 Q289.7656,223.162 291.0781,221.5058 Q292.4063,219.8495 294.9063,219.8495 Q295.6094,219.8495 296.25,220.0058 Q296.9063,220.162 297.4688,220.4589 L297.4688,223.1777 Q296.8438,222.5995 296.25,222.3339 Q295.6563,222.0527 295.0313,222.0527 Q293.6875,222.0527 293,223.1308 Q292.3125,224.1933 292.3125,226.287 Q292.3125,228.3808 293,229.4589 Q293.6875,230.5214 295.0313,230.5214 Q295.6563,230.5214 296.25,230.2558 Q296.8438,229.9745 297.4688,229.3964 L297.4688,232.1152 Z " fill="#000000"/><text fill="#D9B8FF" font-family="Helvetica" font-size="17" lengthAdjust="spacing" textLength="173" x="313.5" y="232.3598">gcp_backend_service</text></g><!--class gcp_target_grpc_proxy--><g id="elem_gcp_target_grpc_proxy"><rect codeLine="26" fill="#3D176E" height="39.7891" id="gcp_target_grpc_proxy" rx="2.5" ry="2.5" style="stroke:#000D19;stroke-width:0.5;" width="230" x="7" y="7"/><ellipse cx="22" cy="26.8945" fill="#ADD1B2" rx="11" ry="11" style="stroke:#181818;stroke-width:1.0;"/><path d="M24.9688,32.5352 Q24.3906,32.832 23.75,32.9727 Q23.1094,33.1289 22.4063,33.1289 Q19.9063,33.1289 18.5781,31.4883 Q17.2656,29.832 17.2656,26.707 Q17.2656,23.582 18.5781,21.9258 Q19.9063,20.2695 22.4063,20.2695 Q23.1094,20.2695 23.75,20.4258 Q24.4063,20.582 24.9688,20.8789 L24.9688,23.5977 Q24.3438,23.0195 23.75,22.7539 Q23.1563,22.4727 22.5313,22.4727 Q21.1875,22.4727 20.5,23.5508 Q19.8125,24.6133 19.8125,26.707 Q19.8125,28.8008 20.5,29.8789 Q21.1875,30.9414 22.5313,30.9414 Q23.1563,30.9414 23.75,30.6758 Q24.3438,30.3945 24.9688,29.8164 L24.9688,32.5352 Z " fill="#000000"/><text fill="#D9B8FF" font-family="Helvetica" font-size="17" lengthAdjust="spacing" textLength="188" x="41" y="32.7798">gcp_target_grpc_proxy</text></g><!--class gcp_target_http_proxy--><g id="elem_gcp_target_http_proxy"><rect codeLine="29" fill="#3D176E" height="39.7891" id="gcp_target_http_proxy" rx="2.5" ry="2.5" style="stroke:#000D19;stroke-width:0.5;" width="230" x="272" y="7"/><ellipse cx="287" cy="26.8945" fill="#ADD1B2" rx="11" ry="11" style="stroke:#181818;stroke-width:1.0;"/><path d="M289.9688,32.5352 Q289.3906,32.832 288.75,32.9727 Q288.1094,33.1289 287.4063,33.1289 Q284.9063,33.1289 283.5781,31.4883 Q282.2656,29.832 282.2656,26.707 Q282.2656,23.582 283.5781,21.9258 Q284.9063,20.2695 287.4063,20.2695 Q288.1094,20.2695 288.75,20.4258 Q289.4063,20.582 289.9688,20.8789 L289.9688,23.5977 Q289.3438,23.0195 288.75,22.7539 Q288.1563,22.4727 287.5313,22.4727 Q286.1875,22.4727 285.5,23.5508 Q284.8125,24.6133 284.8125,26.707 Q284.8125,28.8008 285.5,29.8789 Q286.1875,30.9414 287.5313,30.9414 Q288.1563,30.9414 288.75,30.6758 Q289.3438,30.3945 289.9688,29.8164 L289.9688,32.5352 Z " fill="#000000"/><text fill="#D9B8FF" font-family="Helvetica" font-size="17" lengthAdjust="spacing" textLength="188" x="306" y="32.7798">gcp_target_http_proxy</text></g><!--class gcp_target_https_proxy--><g id="elem_gcp_target_https_proxy"><rect codeLine="32" fill="#3D176E" height="39.7891" id="gcp_target_https_proxy" rx="2.5" ry="2.5" style="stroke:#000D19;stroke-width:0.5;" width="238" x="537" y="7"/><ellipse cx="552" cy="26.8945" fill="#ADD1B2" rx="11" ry="11" style="stroke:#181818;stroke-width:1.0;"/><path d="M554.9688,32.5352 Q554.3906,32.832 553.75,32.9727 Q553.1094,33.1289 552.4063,33.1289 Q549.9063,33.1289 548.5781,31.4883 Q547.2656,29.832 547.2656,26.707 Q547.2656,23.582 548.5781,21.9258 Q549.9063,20.2695 552.4063,20.2695 Q553.1094,20.2695 553.75,20.4258 Q554.4063,20.582 554.9688,20.8789 L554.9688,23.5977 Q554.3438,23.0195 553.75,22.7539 Q553.1563,22.4727 552.5313,22.4727 Q551.1875,22.4727 550.5,23.5508 Q549.8125,24.6133 549.8125,26.707 Q549.8125,28.8008 550.5,29.8789 Q551.1875,30.9414 552.5313,30.9414 Q553.1563,30.9414 553.75,30.6758 Q554.3438,30.3945 554.9688,29.8164 L554.9688,32.5352 Z " fill="#000000"/><text fill="#D9B8FF" font-family="Helvetica" font-size="17" lengthAdjust="spacing" textLength="196" x="571" y="32.7798">gcp_target_https_proxy</text></g><!--class gcp_url_map--><g id="elem_gcp_url_map"><rect codeLine="35" fill="#3D176E" height="39.7891" id="gcp_url_map" rx="2.5" ry="2.5" style="stroke:#000D19;stroke-width:0.5;" width="148" x="313" y="106.79"/><ellipse cx="328" cy="126.6845" fill="#ADD1B2" rx="11" ry="11" style="stroke:#181818;stroke-width:1.0;"/><path d="M330.9688,132.3252 Q330.3906,132.622 329.75,132.7627 Q329.1094,132.9189 328.4063,132.9189 Q325.9063,132.9189 324.5781,131.2783 Q323.2656,129.622 323.2656,126.497 Q323.2656,123.372 324.5781,121.7158 Q325.9063,120.0595 328.4063,120.0595 Q329.1094,120.0595 329.75,120.2158 Q330.4063,120.372 330.9688,120.6689 L330.9688,123.3877 Q330.3438,122.8095 329.75,122.5439 Q329.1563,122.2627 328.5313,122.2627 Q327.1875,122.2627 326.5,123.3408 Q325.8125,124.4033 325.8125,126.497 Q325.8125,128.5908 326.5,129.6689 Q327.1875,130.7314 328.5313,130.7314 Q329.1563,130.7314 329.75,130.4658 Q330.3438,130.1845 330.9688,129.6064 L330.9688,132.3252 Z " fill="#000000"/><text fill="#D9B8FF" font-family="Helvetica" font-size="17" lengthAdjust="spacing" textLength="106" x="347" y="132.5698">gcp_url_map</text></g><!--link gcp_target_grpc_proxy to gcp_url_map--><g id="link_gcp_target_grpc_proxy_gcp_url_map"><path codeLine="38" d="M174.36,47.22 C220.81,64.36 282.7014,87.1917 329.1214,104.3317 " fill="none" id="gcp_target_grpc_proxy-to-gcp_url_map" style="stroke:#1A83AF;stroke-width:2.0;"/><polygon fill="#1A83AF" points="334.75,106.41,327.6927,99.5402,330.0595,104.6781,324.9216,107.045,334.75,106.41" style="stroke:#1A83AF;stroke-width:2.0;"/></g><!--link gcp_target_http_proxy to gcp_url_map--><g id="link_gcp_target_http_proxy_gcp_url_map"><path codeLine="39" d="M387,47.22 C387,64.36 387,83.27 387,100.41 " fill="none" id="gcp_target_http_proxy-to-gcp_url_map" style="stroke:#1A83AF;stroke-width:2.0;"/><polygon fill="#1A83AF" points="387,106.41,391,97.41,387,101.41,383,97.41,387,106.41" style="stroke:#1A83AF;stroke-width:2.0;"/></g><!--link gcp_target_https_proxy to gcp_url_map--><g id="link_gcp_target_https_proxy_gcp_url_map"><path codeLine="40" d="M602.85,47.22 C555.69,64.36 492.7986,87.219 445.6786,104.359 " fill="none" id="gcp_target_https_proxy-to-gcp_url_map" style="stroke:#1A83AF;stroke-width:2.0;"/><polygon fill="#1A83AF" points="440.04,106.41,449.8652,107.0925,444.7388,104.7008,447.1305,99.5744,440.04,106.41" style="stroke:#1A83AF;stroke-width:2.0;"/></g><!--link gcp_url_map to gcp_backend_service--><g id="link_gcp_url_map_gcp_backend_service"><path codeLine="41" d="M387,147.01 C387,164.15 387,183.06 387,200.2 " fill="none" id="gcp_url_map-to-gcp_backend_service" style="stroke:#1A83AF;stroke-width:2.0;"/><polygon fill="#1A83AF" points="387,206.2,391,197.2,387,201.2,383,197.2,387,206.2" style="stroke:#1A83AF;stroke-width:2.0;"/></g><!--SRC=[ZT3VJy8m40Vmz_qLJNWcOIuAl9XC4g8ln8XlnYnTUzqQjhQv7Y0Q_tT1n9Hj_7Yz-xJtlIkr10QremsheSu1VUGNsZYEl6OfebrFR6MHzPJYAXascrDhw2AOyHhO8rGh82ruKxoMMYmCUCzkWjO35ui2xTB8_VU4tFXj2mm5Qb9nxrCYrFcI80WZn_b8gQPiVjfBP3oyWnQpA07_o60maF6uIIwEEhltlvZhJs1nUBIP9MZ5R8tuLMTJxaGGihNeeNyoupENKfk2tGQrbtqcD817zNd9fLtljEAL3yTu0WHB6mUJrbOm7aarxCHFft0aTgTZXN1PlYLWPEO1Lre0-ugYxw1D70kWh40dCeVsOtC2b4Jk8l3TOebLLdEtBtSFxR_rudIKfDFt_dtu9kgES2ttr_X3l1Pgd2xw0G00]--></g></svg>

<svg xmlns="http://www.w3.org/2000/svg" width="782" height="252" viewBox="0 0 782 252"><rect width="215" height="39.789" x="279.5" y="206.58" fill="#3D176E" rx="2.5" ry="2.5" style="stroke:#000d19;stroke-width:.5"/><circle cx="294.5" cy="226.475" r="11" fill="#ADD1B2" style="stroke:#181818;stroke-width:1"/><path d="M297.469 232.115q-.578.297-1.219.438-.64.156-1.344.156-2.5 0-3.828-1.64-1.312-1.657-1.312-4.782t1.312-4.781q1.328-1.656 3.828-1.656.703 0 1.344.156.656.156 1.219.453v2.719q-.625-.578-1.219-.844-.594-.281-1.219-.281-1.344 0-2.031 1.078-.687 1.062-.687 3.156t.687 3.172q.688 1.062 2.031 1.062.625 0 1.219-.265.594-.281 1.219-.86z"/><text x="313.5" y="232.36" fill="#D9B8FF" font-family="Helvetica" font-size="17" textLength="173">gcp_backend_service</text><rect width="230" height="39.789" x="7" y="7" fill="#3D176E" rx="2.5" ry="2.5" style="stroke:#000d19;stroke-width:.5"/><circle cx="22" cy="26.895" r="11" fill="#ADD1B2" style="stroke:#181818;stroke-width:1"/><path d="M24.969 32.535q-.578.297-1.219.438-.64.156-1.344.156-2.5 0-3.828-1.64-1.312-1.657-1.312-4.782t1.312-4.781q1.328-1.656 3.828-1.656.703 0 1.344.156.656.156 1.219.453v2.719q-.625-.578-1.219-.844-.594-.281-1.219-.281-1.343 0-2.031 1.078-.687 1.062-.687 3.156t.687 3.172q.688 1.062 2.031 1.062.625 0 1.219-.265.594-.281 1.219-.86z"/><text x="41" y="32.78" fill="#D9B8FF" font-family="Helvetica" font-size="17" textLength="188">gcp_target_grpc_proxy</text><rect width="230" height="39.789" x="272" y="7" fill="#3D176E" rx="2.5" ry="2.5" style="stroke:#000d19;stroke-width:.5"/><circle cx="287" cy="26.895" r="11" fill="#ADD1B2" style="stroke:#181818;stroke-width:1"/><path d="M289.969 32.535q-.578.297-1.219.438-.64.156-1.344.156-2.5 0-3.828-1.64-1.312-1.657-1.312-4.782t1.312-4.781q1.328-1.656 3.828-1.656.703 0 1.344.156.656.156 1.219.453v2.719q-.625-.578-1.219-.844-.594-.281-1.219-.281-1.344 0-2.031 1.078-.687 1.062-.687 3.156t.687 3.172q.688 1.062 2.031 1.062.625 0 1.219-.265.594-.281 1.219-.86z"/><text x="306" y="32.78" fill="#D9B8FF" font-family="Helvetica" font-size="17" textLength="188">gcp_target_http_proxy</text><rect width="238" height="39.789" x="537" y="7" fill="#3D176E" rx="2.5" ry="2.5" style="stroke:#000d19;stroke-width:.5"/><circle cx="552" cy="26.895" r="11" fill="#ADD1B2" style="stroke:#181818;stroke-width:1"/><path d="M554.969 32.535q-.578.297-1.219.438-.64.156-1.344.156-2.5 0-3.828-1.64-1.312-1.657-1.312-4.782t1.312-4.781q1.328-1.656 3.828-1.656.703 0 1.344.156.656.156 1.219.453v2.719q-.625-.578-1.219-.844-.594-.281-1.219-.281-1.343 0-2.031 1.078-.687 1.062-.687 3.156t.687 3.172q.688 1.062 2.031 1.062.625 0 1.219-.265.594-.281 1.219-.86z"/><text x="571" y="32.78" fill="#D9B8FF" font-family="Helvetica" font-size="17" textLength="196">gcp_target_https_proxy</text><rect width="148" height="39.789" x="313" y="106.79" fill="#3D176E" rx="2.5" ry="2.5" style="stroke:#000d19;stroke-width:.5"/><circle cx="328" cy="126.684" r="11" fill="#ADD1B2" style="stroke:#181818;stroke-width:1"/><path d="M330.969 132.325q-.578.297-1.219.438-.64.156-1.344.156-2.5 0-3.828-1.64-1.312-1.657-1.312-4.782t1.312-4.781q1.328-1.656 3.828-1.656.703 0 1.344.156.656.156 1.219.453v2.719q-.625-.579-1.219-.844-.594-.281-1.219-.281-1.344 0-2.031 1.078-.687 1.062-.687 3.156t.687 3.172q.688 1.062 2.031 1.062.625 0 1.219-.265.594-.281 1.219-.86z"/><text x="347" y="132.57" fill="#D9B8FF" font-family="Helvetica" font-size="17" textLength="106">gcp_url_map</text><path fill="none" d="M174.36 47.22c46.45 17.14 108.341 39.972 154.761 57.112" style="stroke:#1a83af;stroke-width:2"/><path fill="#1A83AF" d="m334.75 106.41-7.057-6.87 2.367 5.138-5.138 2.367z" style="stroke:#1a83af;stroke-width:2"/><path fill="none" d="M387 47.22v53.19" style="stroke:#1a83af;stroke-width:2"/><path fill="#1A83AF" d="m387 106.41 4-9-4 4-4-4z" style="stroke:#1a83af;stroke-width:2"/><path fill="none" d="M602.85 47.22c-47.16 17.14-110.051 39.999-157.171 57.139" style="stroke:#1a83af;stroke-width:2"/><path fill="#1A83AF" d="m440.04 106.41 9.825.683-5.126-2.392 2.392-5.127z" style="stroke:#1a83af;stroke-width:2"/><path fill="none" d="M387 147.01v53.19" style="stroke:#1a83af;stroke-width:2"/><path fill="#1A83AF" d="m387 206.2 4-9-4 4-4-4z" style="stroke:#1a83af;stroke-width:2"/></svg>
